!!!!SEGMENT: pl-kk--kk-i-484--001_anonim--graduale-dominus-clamavi.krn
!!!cenid: 18xx:1369
!!!COM: Anonim
!!!COM-rismid: pe30004985
!!!CDT:
!!!CNT:
!!!OTL: Graduale Dominus clamavi
!!!PDT:
!!!AGN: Sacred
!!!SMS-siglum: PL-Kk
!!!SMS-shelfmark: Kk.I.484
!!!SMS-shelfwork: 001 W
!!!SMS-variant:
!!!SMS-altvar:
!!!NIFC-rismid: 1001141031
!!!URL-scan: http://repozytorium.nifc.pl/skany/pl-kk-nut--i-484
!!!ONB-nifc: UWAGA: utwory w zbiorze: 1. Graduale Dominus clamavi, 2. Laudate Dominum
!!!key:
**kern	**text	**kern	**text
*part2	*part2	*part1	*part1
*staff2	*staff2	*staff1	*staff1
*Ialto	*	*Isoprn	*
*I"Alt	*	*I"Sopran	*
*I'A	*	*I'S	*
*clefC3	*	*clefC1	*
*k[b-]	*	*k[b-]	*
*F:	*	*F:	*
*M4/4	*	*M4/4	*
*met(c)	*	*met(c)	*
=1	=1	=1	=1
!LO:TX:a:B:t=Largo	!	!LO:TX:a:B:t=Largo	!
!LO:TX:a:B:t=1m Graduale Domine clamavi	!	!LO:TX:a:B:t=1m Graduale Domine clamavi	!
2r	.	2r	.
4r	.	4r	.
8.a\	Do-	8.a\	Do-
16g\	-mi-	16g\	-mi-
=2	=2	=2	=2
(4f\	-ne	(4f/	-ne
8c\)	.	8c/)	.
16r	.	16r	.
16cc\	cla-	16cc\	cla-
(4cc\	-ma-	(4cc\	-ma-
8.a\)	.	8.a\)	.
16f\	-vi	16f/	-vi
=3	=3	=3	=3
*	*	*Xtuplet	*
!LO:TUP:a:problem:klamra łukowa	!	!LO:TUP:b:problem:klamra łukowa	!
12f\L	ad	12f/L	ad
12e\	.	12e/	.
12g\J	.	12g/J	.
4b-\	te	4b-\	te
4r	.	4r	.
4c\	ex-	4c/	ex-
!LO:LB:g=original	!	!LO:LB:g=original	!
=4	=4	=4	=4
4c\	-au-	4c/	-au-
8.f\	-di	8.f/	-di
16a\	me	16a/	me
(8.a\L	ex-	(8.a/L	ex-
16g\Jk)	.	16g/Jk)	.
8.a\	-au-	8.a/	-au-
16g\	-di	16g/	-di
=5	=5	=5	=5
(4f\	me	(4f/	me.
4e\)	.	4e/)	.
4r	.	4r	.
8.a\L	in-	(8.a/L	in-
16g\Jk	.	16g/Jk)	.
=6	=6	=6	=6
4f\	-ten-	4f/	-ten-
!	!	!LO:TX:t=P:problem:mixed beam	!
8.c\L	-de	(8.c/L	-de
16cc\Jk	.	16cc\Jk)	.
4cc\	vo-	4cc\	vo-
(8.a\L	-ci	(8.a\L	-ci
16f\Jk)	.	16f\Jk)	.
!LO:LB:g=original	!	!LO:LB:g=original	!
=7	=7	=7	=7
*	*	*tuplet	*
!LO:TUP:a:problem:klamra łukowa	!	!LO:TUP:b:problem:klamra łukowa	!
12f\L	me-	12f/L	me-
12e\	.	12e/	.
12g\J	.	12g/J	.
4b-\	-e	4b-\	-e
4r	.	4r	.
4c\	dum	4c/	dum
=8	=8	=8	=8
*	*	*Xtuplet	*
!LO:TUP:a:problem:klamra łukowa	!	!LO:TUP:b:problem:klamra łukowa	!
12c\L	cla-	12c/L	cla-
12f\	.	12f/	.
12a\J	.	12a/J	.
*Xtuplet	*	*	*
*Xbrackettup	*	*	*
!	!	!LO:TUP:a:problem:klamra łukowa	!
12cc\L	-ma-	12cc\L	-ma-
12b-\J	.	12b-\J	.
12g\	-ve-	12g\	-ve-
4f\	-ro	4f/	-ro
!LO:TUP:a:problem:klamra łukowa	!	!	!
12e\L	ad	12e/L	ad
12a\	.	12a/	.
12g\J	.	12g/J	.
=9	=9	=9	=9
*2\right	*	*	*
2f\	te	2f/	te
4r	.	4r	.
8.a\	Do-	8.a\	Do-
16a\	-mi-	16a\	-mi-
=10	=10	=10	=10
4g\	-ne	4g\	-ne
*	*	*tuplet	*
*	*	*Xbrackettup	*
!	!	!LO:TUP:a:problem:klamra łukowa	!
12bn\L	mi-	12bn\L	mi-
12a\J	.	12a\J	.
12g\	-se-	12g\	-se-
!LO:LB:g=original	!	!LO:LB:g=original	!
4f\	-re-	(4f\	-re-
*	*	*Xtuplet	*
12a\L	.	12a\L	.
12g\J	.	12g\J	.
12f\	-re	12f\)	-re
=11	=11	=11	=11
8.e\L	no-	8.e/L	no-
16f\Jk	.	16f/Jk	.
4g\	-stri	4g/	-stri
4r	.	4r	.
8.a\	Do-	8.a\	Do-
16bn\	-mi-	16bn\	-mi-
=12	=12	=12	=12
4cc\	-ne	4cc\	-ne
8.bn\	mi-	8.bn\	mi-
16a\	-se-	16a\	-se-
*	*	*tuplet	*
!	!	!LO:TUP:a:problem:klamra łukowa	!
12a\L	-re-	12a\L	-re-
12g\	.	12g\	.
12f#X\J	.	12f#X\J	.
*	*	*Xtuplet	*
12a\L	.	12a\L	.
12g\J	.	12g\	.
12fn\	-re	12fn\J	-re
!LO:LB:g=original	!	!LO:LB:g=original	!
=13	=13	=13	=13
(8.e\L	no-	(8.e/L	no-
16d\Jk)	.	16d/Jk)	.
2c\	-stri	2c/	-stri
8.a\	Do-	8.a\	Do-
16g\	-mi-	16g\	-mi-
=14	=14	=14	=14
(4f\	-ne	(4f/	-ne
!LO:N:vis=16	!	!	!
8c\)	.	8c/)	.
16r	.	16r	.
16cc\	cla-	16cc\	cla-
4cc\	-ma-	(4cc\	-ma-
8.a\	.	8.a\)	.
16f\	-vi	16f/	-vi
=15	=15	=15	=15
*tuplet	*	*	*
!LO:TUP:a:problem:klamra łukowa	!	!LO:TUP:b:problem:klamra łukowa	!
12f\L	ad	12f/L	ad
12e\	.	12e/	.
12g\J	.	12g/J	.
4b-\	te	4b-\	te
4r	.	4r	.
4c\	ex-	4c/	ex-
!LO:LB:g=original	!	!LO:LB:g=original	!
=16	=16	=16	=16
*Xtuplet	*	*	*
12d\	-au-	12d/	-au-
12f\	-di	12f/	-di
12a\	me	12a\	me
12cc\	in-	12cc\	in-
12b-\	-ten-	12b-\	-ten-
12g\	-de	12g\	-de
4f\	vo-	4f/	vo-
(12e\L	-ci	(12e/L	-ci
12a\J)	.	12a/J)	.
12g\	me-	12g/	me-
=17	=17	=17	=17
2f\	-e	2f/	-e
4r	.	4r	.
8.c\	dum	8.cc\	dum
16c\	cla-	16cc\	cla-
=18	=18	=18	=18
*	*	*^	*
4g\	-ma-	4ee/	4cc\	-ma-
8.g\	-ve-	8.ee/	8.cc\	-ve-
16g\	-ro	16ee 16cc\	16ryy	-ro
4g\	cla-	4ee 4cc\	2ryy	cla-
!	!	!LO:LB:g=original	!LO:LB:g=original	!
8.g\	-ma-	12ee 12cc\L	.	-ma-
.	.	12dd 12bn\J	.	.
.	.	12cc 12a\	.	-ve-
16a\	-ve-	.	.	.
*	*	*v	*v	*
!LO:LB:g=original	!	!	!
=19	=19	=19	=19
4g\	-ro	4bn 4g\	-ro
!	!	!LO:TUP:a:problem:klamra łukowa	!
12f\L	ad	12aL 12f\	ad
12g\	.	12b 12g\	.
12a\J	.	12ccJ 12a\	.
4e\	te	4g 4e/	te
*tuplet	*	*	*
!LO:TUP:a:problem:klamra łukowa	!	!	!
12r	.	12r	.
12e\	in-	12g 12e/	in-
12e\	-ten-	12g 12e/	-ten-
=20	=20	=20	=20
8Bn/	-de	8f 8d/	-de
8r	.	8r	.
8B/	in-	8f 8d/	in-
16r	.	16r	.
16B/	-ten-	16f 16d/	-ten-
8B/	-de	8f 8d/	-de
8r	.	8r	.
8B/	vo-	8.f 8.d/	vo-
16r	.	.	.
16B/	-ci	16f 16d/	-ci
!	!	!LO:LB:g=original	!
=21	=21	=21	=21
*	*	*^	*
4c\	me-	(4a 4f/	2.ryy	me
4c\	-e	4g 4e/)	.	.
4r	.	4r	.	.
8.g\	dum	8.g/	8.g\	dum
16g\	cla-	16g/	16g\	cla-
*	*	*v	*v	*
!LO:LB:g=original	!	!	!
=22	=22	=22	=22
4g\	-ma-	4ee 4cc\	-ma-
8.g\	-ve-	8.ee 8.cc\	-ve-
16g\	-ro	16ee 16cc\	-ro
4g\	cla-	4ee 4cc\	cla-
8.g\	-ma-	12eeL 12cc\	-ma-
.	.	12ddJ 12bn\	.
.	.	12cc 12a\	-ve-
16a\	-ve-	.	.
=23	=23	=23	=23
4g\	-ro	4bn 4g\	-ro
!LO:TUP:a:problem:klamra łukowa	!	!	!
12f\L	ad	12aL 12f\	ad
12g\	.	12b 12g\	.
12a\J	.	12ccJ 12a\	.
4e\	te	4g 4e\	te
*Xtuplet	*	*	*
12r	.	12r	.
12c/	in-	12g 12e/	in-
12c/	-ten-	12g 12e/	-ten-
!	!	!LO:LB:g=original	!
=24	=24	=24	=24
8Bn/	-de	8f 8d/	-de
8r	.	8r	.
8B/	in-	8f 8d/	in-
16r	.	16r	.
16B/	-ten-	16f 16d/	-ten-
8B/	-de	8f 8d/	-de
8r	.	8r	.
8B/	vo-	(12fL 12d/	vo-
.	.	12aJ 12f/)	.
16r	.	.	.
.	.	12g 12e/	-ci
16B/	-ci	.	.
!LO:LB:g=original	!	!	!
=25	=25	=25	=25
4c\	me-	4e 4c/	me-
4c\	-e	4e 4c/	-e
4r	.	4r	.
8.c\	dum	8.c/	dum
16c\	cla-	16c/	cla-
=26	=26	=26	=26
4c\	-ma-	4b- 4e/	-ma-
8.c\	-ve-	8.b- 8.e/	-ve-
16c\	-ro	16b- 16e/	-ro
!	!	!LO:LB:g=original	!
4c\	cla-	4a-X 4f/	cla-
8.c\	-ma-	8.a- 8.f/	-ma-
16c\	-ve-	16a- 16f/	-ve-
=27	=27	=27	=27
4c\	-ro	4g 4e/	-ro
4c\	ad	4g 4e/	ad
8c\	te	8c/	te
8r	.	8r	.
8.c\	dum	8.c/	dum
16c\	cla-	16c/	cla-
!LO:LB:g=original	!	!	!
=28	=28	=28	=28
4c\	-ma-	4b- 4e/	-ma-
8.c\	-ve-	8.b- 8.e/	-ve-
16c\	-ro	16b- 16e/	-ro
4c\	cla-	4a-X 4f/	cla-
8.c\	-ma-	8.a- 8.f/	-ma-
16c\	-ve-	16a- 16f/	-ve-
!	!	!LO:LB:g=original	!
=29	=29	=29	=29
4c\	-ro	4g 4e/	-ro
4c\	ad	4c/	ad
8c\	te	8c/	te
8r	.	8r	.
8.a\	Do-	8.an\	Do-
16g\	-mi-	16g\	-mi-
=30	=30	=30	=30
4f\	-ne	(6f/	-ne
.	.	12c/)	.
8c\	.	8.r	.
16r	.	.	.
16cc\	cla-	16cc\	cla-
4cc\	-ma-	4cc\	-ma-
8.a\	.	8.a\	.
16f\	-vi	16f/	-vi
!LO:LB:g=original	!	!	!
=31	=31	=31	=31
*tuplet	*	*	*
!	!	!LO:TUP:b:problem:klamra łukowa	!
12f\L	ad	12f/L	ad
12e\	.	12e/	.
12g\J	.	12g/J	.
4b-\	te	4b-\	te
4r	.	4r	.
4c\	ex-	4c/	ex-
!	!	!LO:PB:g=original	!
=32	=32	=32	=32
*Xtuplet	*	*	*
12d\	-au-	12d/	-au-
12f\	-di	12f/	-di
12a\	me	12a/	me
12cc\	in-	12cc\	in-
12b-\	-ten-	12b-\	-ten-
12g\	-de	12g\	-de
4f\	vo-	4f/	vo-
12e\L	-ci	12e/L	-ci
12a\J	.	12a/J	.
12g\	me-	12g\	me-
!LO:PB:g=original	!	!	!
=33	=33	=33	=33
8f\	-e	8f/	-e
8r	.	8r	.
8.a\	in-	8.a\	in-
16a\	-ten-	16a\	-ten-
4a\	-de	4a\	-de
8.a\	in-	8.a\	vo-
16a\	-ten-	16a\	-ci
!	!	!LO:LB:g=original	!
=34	=34	=34	=34
*	*	*2\right	*
2dd\	-de	2dd\	me
*tuplet	*	*	*
!LO:TUP:a:problem:klamra łukowa	!	!	!
12dd\L	vo-	12dd\L	vo-
12cc\	.	12cc\	.
12b-\J	.	12b-\J	.
*Xtuplet	*	*tuplet	*
!	!	!LO:TUP:a:problem:klamra łukowa	!
12a\L	-ci	12a\L	-ci
12b-\J	.	12b-\J	.
12g\	me-	12g\	me-
=35	=35	=35	=35
8f\	-e	8f/	-e
8r	.	8r	.
8.a\	in-	8.a\	in-
16a\	-ten-	16a\	-ten-
4a\	-de	4a\	-de
8.a\	in-	8.a\	in-
16a\	-ten-	16a\	-ten-
!LO:LB:g=original	!	!	!
=36	=36	=36	=36
2dd\	-de	2dd\	-de
*	*	*Xtuplet	*
12dd\L	vo-	12dd\L	vo-
12cc\	.	12cc\	.
12b-\J	.	12b-\J	.
12a\L	-ci	12a\L	-ci
12b-\J	.	12b-\J	.
12g\	me-	12g\	me-
!	!	!LO:LB:g=original	!
=37	=37	=37	=37
8f\	-e	8f/	-e
8r	.	8r	.
8.c\	in-	8.a 8.f/	in-
16c\	-ten-	16a 16f/	-ten-
4c\	-de	4a 4f/	-de
8.c\	vo-	8.a 8.f/	vo-
16c\	-ci	16a 16f/	-ci
=38	=38	=38	=38
1c	me-	1a 1f	me-
=39	=39	=39	=39
4c\	-e	4a 4f/	-e
4r	.	4r	.
2r	.	2r	.
==	==	==	==
*-	*-	*-	*-
!!!system-decoration: [(s1,s2)]
!!!AIN: 1 alto 1 soprn
!!!ENC: Marta Lawrence
!!!END: 2021-01-15
!!!ENC: Tomasz Grochalski
!!!END: 2021-01-10
